src/icons/svg/Pin.svg

<svg width="25" height="24" viewBox="0 0 25 24" fill="none" xmlns="http://www.w3.org/2000/svg">
<path d="M16.031 12V4H17.031V2H7.03101V4H8.03101V12L6.03101 14V16H11.231V22H12.831V16H18.031V14L16.031 12ZM8.83101 14L10.031 12.8V4H14.031V12.8L15.231 14H8.83101V14Z" fill="#1C2125"/>
</svg>

<!-- Generated by IcoMoon.io -->
<svg version="1.1" xmlns="http://www.w3.org/2000/svg" width="25" height="24" viewBox="0 0 25 24">
<title>pin</title>
<path fill="#c1c6cc" d="M16.031 12v-8h1v-2h-10v2h1v8l-2 2v2h5.2v6h1.6v-6h5.2v-2l-2-2zM8.831 14l1.2-1.2v-8.8h4v8.8l1.2 1.2h-6.4z"></path>
</svg>
